!!!COA:	Josquin des Prez
!!!CDT:	~1450-1521/08/27
!!!COM:	Comp&egrave;re, Loyset
!!!OPR:	Missa L'homme arm&eacute; quarti toni
!!!ONM:	4
!!!OTL:	Sanctus
!!!AGN:	Mass; Sanctus
!!!SCT:	NJE 6.1
!!!SCA:	New Josquin Edition 6.1
!!!voices:	4
!!!voices-OPR:	4
**kern	**kern	**kern	**kern
*staff4	*staff3	*staff2	*staff1
*Ivox	*Ivox	*Ivox	*Ivox
*I"Bassus	*I"Tenor	*I"Altus	*I"Superius
*I'B	*I'T	*I'A	*I'S
*>[A,B,C,D,E]	*>[A,B,C,D,E]	*>[A,B,C,D,E]	*>[A,B,C,D,E]
*>A	*>A	*>A	*>A
*clefF4	*clefGv2	*clefGv2	*clefG2
*k[]	*k[]	*k[]	*k[]
*M3/1	*M3/1	*M3/1	*M3/1
*met(O)	*met(O)	*met(O)	*met(O)
=1-	=1-	=1-	=1-
!!LO:TX:Z=52:t=Canon&colon; Tempora bina pausa.
!!LO:TX:Z=32:t=post has uni postonisa.
!!LO:TX:Z=12:t=[Canon at the lower second]
0E	0.r	0.r	0.r
1E	.	.	.
=2	=2	=2	=2
0A	0.r	0.r	1r
.	.	.	[0e
1A	.	.	.
=3	=3	=3	=3
1G	0.r	0.r	1e]
2.F\	.	.	0a
4E\	.	.	.
1F	.	.	.
=4	=4	=4	=4
2E\	0.r	0.r	2g/
1A	.	.	2.f/
.	.	.	4e/
2G\	.	.	1e
1F	.	.	.
.	.	.	2d/
=5	=5	=5	=5
1.E	0.r	0.r	2.e/
.	.	.	4f/
.	.	.	2g/
4D\	.	.	1a
4C/	.	.	.
1BB	.	.	.
.	.	.	2g#i/
=6	=6	=6	=6
[0.AA	0E	0.r	1a
.	.	.	2r
.	.	.	2.a/
.	1E	.	.
.	.	.	4b\
.	.	.	[2cc\
=7	=7	=7	=7
1AA]	0A	0.r	4cc\]
.	.	.	4b\
.	.	.	4a/
.	.	.	4g/
0D	.	.	2a/
.	.	.	1g
.	1A	.	.
.	.	.	2f#i/
=8	=8	=8	=8
1GG	1G	0D	2g/
.	.	.	2G/
0D	2.F/	.	1A
.	4E/	.	.
.	1F	1D	1B
=9	=9	=9	=9
0.C	0.E	0G	2.c/
.	.	.	4d/
.	.	.	2e/
.	.	.	2.e/
.	.	1G	.
.	.	.	4d/
.	.	.	4c/
.	.	.	4B/
=10	=10	=10	=10
1D	0.r	1F	2.A/
.	.	.	4B/
0AA	.	2.E/	2c/
.	.	.	1d
.	.	4D/	.
.	.	1E	.
.	.	.	2c#i/
=11	=11	=11	=11
2r	0.r	0.D	1d
2.A\	.	.	.
.	.	.	2r
4G\	.	.	.
4F\	.	.	2.d/
4E\	.	.	.
1F	.	.	.
.	.	.	4e/
.	.	.	2f/
=12	=12	=12	=12
1E	1B	0.r	0g
2r	1B	.	.
2.E\	.	.	.
.	1E	.	2g/
4D\	.	.	.
2C/	.	.	4f/
.	.	.	4e/
=13	=13	=13	=13
2BB/	2B\	0.r	2d/
1E	2B\	.	1g
.	2B\	.	.
2AA/	1A	.	2f/
1C	.	.	1e
.	2G/	.	.
=14	=14	=14	=14
1D	1F	1A	1d
1AA	1E	1A	2c/
.	.	.	2e/
1A	1r	1D	2d/
.	.	.	[2f/
=15	=15	=15	=15
2.D\	0.r	2A/	4f/]
.	.	.	4e/
.	.	2A/	2d/
4E\	.	.	.
2F\	.	2A/	2c/
1C	.	1G	2.e/
.	.	.	4d/
2D\	.	2F/	[2d/
=16	=16	=16	=16
1AA	1r	1E	2d/]
.	.	.	2c#i/
2r	1r	1D	1d
1A	.	.	.
.	1e	1r	2cni/
[2E\	.	.	[2g/
=17	=17	=17	=17
2E\]	1e	0.r	4g/]
.	.	.	4a/
1G	.	.	4b\
.	.	.	4cc\
.	1d	.	2b\
2D\	.	.	1a
2F\	1d	.	.
4E\	.	.	4g/
4D\	.	.	4f/
=18	=18	=18	=18
0C	1e	1r	1g
.	1e	1r	2c/
.	.	.	2.g/
[1GG	[1B	1d	.
.	.	.	4f/
.	.	.	2g/
=19	=19	=19	=19
1GG]	1B]	1d	2d/
.	.	.	2g/
0C	1e	1c	2r
.	.	.	1g
.	1e	1c	.
.	.	.	2a/
=20	=20	=20	=20
0BB-	1d	1d	2.b-\
.	.	.	4a/
.	1d	1d	2f/
.	.	.	2g/
1r	[1e	[1A	2a/
.	.	.	[2cc\
=21	=21	=21	=21
1AA	1e]	1A]	2cc\]
.	.	.	4b\
.	.	.	4a/
0GG	0B	1d	2b\
.	.	.	2.g/
.	.	1d	.
.	.	.	4f/
.	.	.	2d/
=22	=22	=22	=22
1C	1r	1c	2.e/
.	.	.	4f/
1E	1e	1c	1g
[1D	[1f	[1d	2f/
.	.	.	[2a/
=23	=23	=23	=23
1D]	1f]	1d]	2a/]
.	.	.	2b\
2C/	2e\	0A	2cc\
2D\	2d\	.	2.a/
1AA	1c	.	.
.	.	.	8g/L
.	.	.	8f/J
.	.	.	[2e/
=24	=24	=24	=24
2.E\	0.B	1r	4e/]
.	.	.	4f/
.	.	.	2.g/
4F\	.	.	.
2.G\	.	1d	.
.	.	.	4a/
.	.	.	1b
4F\	.	.	.
4E\	.	[1e	.
4D\	.	.	.
2E\	.	.	[2g/
=25	=25	=25	=25
2C/	0.r	1e]	4g/]
.	.	.	4a/
1G	.	.	4b\
.	.	.	4cc\
.	.	2d\	2b\
2A\	.	2c\	1a
1E	.	1B	.
.	.	.	2g#i/
=26	=26	=26	=26
[0.AA	0E	0.A	1a
.	.	.	2r
.	.	.	2.cc\
.	1E	.	.
.	.	.	4b\
.	.	.	[2a/
=27	=27	=27	=27
1AA]	0A	0.r	4a/]
.	.	.	4g/
.	.	.	4f/
.	.	.	4e/
0D	.	.	2f/
.	.	.	1g
.	1A	.	.
.	.	.	2f#i/
=28	=28	=28	=28
1GG	1G	0D	2g/
.	.	.	2G/
0D	0F	.	1A
.	.	1D	1B
=29	=29	=29	=29
0.C	0.E	0G	1c
.	.	.	2r
.	.	.	2.c/
.	.	1G	.
.	.	.	4d/
.	.	.	2e/
=30	=30	=30	=30
1D	0.r	1F	2f/
.	.	.	4e/
.	.	.	4d/
0AA	.	0E	2c/
.	.	.	1d
.	.	.	2c#i/
=31	=31	=31	=31
2r	0.r	0.D	1d
2.A\	.	.	.
.	.	.	2r
4G\	.	.	.
4F\	.	.	2.a/
4E\	.	.	.
2F\	.	.	.
.	.	.	4g/
2D\	.	.	4f/
.	.	.	4e/
=32	=32	=32	=32
2r	1B	0.r	1d
2.G\	.	.	.
.	1B	.	2r
4F\	.	.	.
4E\	.	.	2.g/
4D\	.	.	.
1E	1B	.	.
.	.	.	4f/
.	.	.	4e/
.	.	.	4d/
=33	=33	=33	=33
1AA	0A	0.r	2.c/
.	.	.	4d/
1r	.	.	2e/
.	.	.	1f
1C	1G	.	.
.	.	.	2e/
=34	=34	=34	=34
2D\	2F/	1A	2f/
2AA/	2E/	.	2c/
1D	1F	1A	1d
1AA	1E	1A	2.c/
.	.	.	4d/
=35	=35	=35	=35
0C	0.r	0G	1e
.	.	.	2r
.	.	.	2e/
1D	.	1F	2f/
.	.	.	4e/
.	.	.	4d/
=36	=36	=36	=36
2AA/	0.r	2E/	2c/
2BB/	.	2D/	1d
1AA	.	1E	.
.	.	.	2c#i/
1A	.	1D	[1d
=37	=37	=37	=37
1G	1B	0.r	1d]
2.E\	1B	.	1g
4F\	.	.	.
1G	1B	.	4g/
.	.	.	4f/
.	.	.	4e/
.	.	.	4d/
=38	=38	=38	=38
2C/	1A	0.r	2e/
2D\	.	.	2.f/
2E\	2G/	.	.
.	.	.	4e/
2C/	2E/	.	1e
1D	1F	.	.
.	.	.	2d/
=39	=39	=39	=39
0.AAl	0.El	0.Al	0.el
!!LO:LB:i:g=z
=40||	=40||	=40||	=40||
*>B	*>B	*>B	*>B
*clefF4	*clefGv2	*clefGv2	*clefG2
*k[]	*k[]	*k[]	*k[]
*M2/1	*M2/1	*M2/1	*M2/1
*met(C|)	*met(C|)	*met(C|)	*met(C|)
!!LO:TX:Z=44:X=50:t=Gradatim scandens hec replico mese querens 
!!LO:TX:Z=24:X=50:t=[each successive c.f. statement begins one step higher than the last]
!!section: Pleni
!!!OMD: Pleni
1.E	0r	0r	0r
2F\	.	.	.
=41	=41	=41	=41
1G	0r	0r	1r
[1C	.	.	[1e
=42	=42	=42	=42
2C/]	1r	0r	2e/]
2D\	.	.	2f/
1E	2r	.	1g
.	[2E/	.	.
=43	=43	=43	=43
0AA	2E/]	0r	2.c/
.	2E/	.	.
.	.	.	4d/
.	[1A	.	2e/
.	.	.	[2f/
=44	=44	=44	=44
0r	2A/]	1r	4f/]
.	.	.	4e/
.	2G/	.	1e
.	1F	1A	.
.	.	.	2d/
=45	=45	=45	=45
1.AA	[0E	2.c\	[0e
.	.	4B\	.
.	.	2A/	.
[2C/	.	2G/	.
=46	=46	=46	=46
4C/]	0E]	1c	0e]
4BB/	.	.	.
2AA/	.	.	.
2GG/	.	2B\	.
[2C/	.	2c\	.
=47	=47	=47	=47
2C/]	0r	2.d\	0r
2BB/	.	.	.
.	.	4c\	.
2C/	.	2A/	.
[2D\	.	[2B\	.
=48	=48	=48	=48
4D\]	0r	4B\]	0r
4C/	.	4A/	.
2AA/	.	1A	.
1BB	.	.	.
.	.	2G#i/	.
=49	=49	=49	=49
2.AA/	1r	0A	0r
4BB/	.	.	.
2C/	2r	.	.
[2D\	[2F/	.	.
=50	=50	=50	=50
4D\]	2F/]	1A	0d
4E\	.	.	.
2F\	2F/	.	.
1G	[1B-i	2r	.
.	.	[2d\	.
=51	=51	=51	=51
0r	2B-\]	4d\]	1f
.	.	4c\	.
.	2A/	1c	.
.	1G	.	1g
.	.	2B\	.
=52	=52	=52	=52
0r	[0F	1c	[0a
.	.	2r	.
.	.	[2c\	.
=53	=53	=53	=53
1r	0F]	2c\]	0a]
.	.	2d\	.
2r	.	2c\	.
[2F\	.	[2A/	.
=54	=54	=54	=54
2F\]	0r	2A/]	0r
2G\	.	2.d\	.
2F\	.	.	.
.	.	4c\	.
[2D\	.	4B\	.
.	.	4A/	.
=55	=55	=55	=55
2D\]	0r	2B\	0r
2F\	.	2A/	.
2E\	.	2G/	.
2C/	.	[2c\	.
=56	=56	=56	=56
1D	1r	2c\]	0r
.	.	2B\	.
[1C	2r	[1c	.
.	[2G/	.	.
=57	=57	=57	=57
1C]	2G/]	1c]	2.e/
.	2G/	.	.
.	.	.	4f/
1r	[1c	1r	2g/
.	.	.	[2a/
=58	=58	=58	=58
0r	2c\]	0r	4a/]
.	.	.	4g/
.	2B\	.	1g
.	1A	.	.
.	.	.	2f/
=59	=59	=59	=59
1r	[0G	1r	2g/
.	.	.	2d/
1C	.	1c	1e
=60	=60	=60	=60
2.GG/	0G]	2.B\	1d
4AA/	.	4c\	.
2BB/	.	2d\	1r
[2C/	.	[2e\	.
=61	=61	=61	=61
4C/]	0r	4e\]	0r
4D\	.	4d\	.
2E\	.	4c\	.
.	.	4B\	.
2AA/	.	2c\	.
2BB/	.	[2B\	.
=62	=62	=62	=62
2C/	0r	4B\]	0r
.	.	4A/	.
2D\	.	1A	.
1BB	.	.	.
.	.	2G#i/	.
=63	=63	=63	=63
2.AA/	1r	0A	2.c/
4BB/	.	.	4d/
2C/	2r	.	2e/
[2D\	[2A/	.	[2f/
=64	=64	=64	=64
4D\]	2A/]	0r	4f/]
4E\	.	.	4g/
2F\	2A/	.	2a/
2D\	[1d	.	2f/
[2G\	.	.	[2b-i\
=65	=65	=65	=65
2G\]	2d\]	0r	4b-\]
.	.	.	4a/
2A\	2c\	.	1a
1E	1B	.	.
.	.	.	2g/
=66	=66	=66	=66
2F\	[0Al	1r	2a/
1D	.	.	1f
.	.	1D	.
4C/	.	.	4e/
4BB/	.	.	4d/
=67	=67	=67	=67
0AAl	0A]	0El	0cl
!!LO:LB:i:g=z
=68||	=68||	=68||	=68||
*>C	*>C	*>C	*>C
*clefF4	*clefGv2	*clefGv2	*clefG2
*k[]	*k[]	*k[]	*k[]
*M2/1	*M2/1	*M2/1	*M2/1
*met(C|)	*met(C|)	*met(C|)	*met(C|)
!!LO:TX:Z=52:X=90:t=Canon&colon; Ad nonam canitur 
!!LO:TX:Z=32:X=90:t=tempora bina silens.
!!LO:TX:Z=12:X=90:t=[Canon at the upper ninth.]
!!section: Osanna
!!!OMD: Osanna
0r	0r	0r	0a
=69	=69	=69	=69
0r	0r	1r	1g
.	.	[1A	[1cc
=70	=70	=70	=70
0r	0r	1A]	2cc\]
.	.	.	4b\
.	.	.	4a/
.	.	1G	1b
=71	=71	=71	=71
0r	0r	0c	2a/
.	.	.	4g/
.	.	.	4f/
.	.	.	2.e/
.	.	.	4f/
=72	=72	=72	=72
0r	0r	2c\	2g/
.	.	4B\	1a
.	.	4A/	.
.	.	1B	.
.	.	.	2g#i/
=73	=73	=73	=73
0D	0r	1.A	1a
.	.	.	2r
.	.	[2d\	[2a/
=74	=74	=74	=74
0D	0r	2d\]	4a/]
.	.	.	4g/
.	.	2c\	4f/
.	.	.	4e/
.	.	2A/	1f
.	.	2B\	.
=75	=75	=75	=75
0C	0e	1c	2e/
.	.	.	2.g/
.	.	2r	.
.	.	.	4f/
.	.	[2G/	4e/
.	.	.	4d/
=76	=76	=76	=76
0C	0e	2G/]	1c
.	.	2A/	.
.	.	2G/	2r
.	.	[2A/	2c/
=77	=77	=77	=77
0D	0d	4A/]	2.f/
.	.	4G/	.
.	.	4F/	.
.	.	4E/	4g/
.	.	2D/	2a/
.	.	[2A/	2d/
=78	=78	=78	=78
0D	0d	4A/]	2.f/
.	.	4G/	.
.	.	4F/	.
.	.	4E/	4g/
.	.	1F	2a/
.	.	.	2b\
=79	=79	=79	=79
0AA	0e	2E/	1cc
.	.	2.A/	.
.	.	.	2r
.	.	4G/	.
.	.	4A/	[2cc\
.	.	4B\	.
=80	=80	=80	=80
0r	0e	2.c\	4cc\]
.	.	.	4b\
.	.	.	4a/
.	.	4B\	4g/
.	.	4A/	2a/
.	.	4G/	.
.	.	2A/	2e/
=81	=81	=81	=81
0r	0B	2E/	2.g/
.	.	2.G/	.
.	.	.	4f/
.	.	.	1d
.	.	4F/	.
.	.	2D/	.
=82	=82	=82	=82
0r	0r	1E	0g
.	.	4E/	.
.	.	4F/	.
.	.	4G/	.
.	.	4A/	.
=83	=83	=83	=83
0D	0r	2B\	2d/
.	.	1A	2.f/
.	.	.	4g/
.	.	[2d\	2a/
=84	=84	=84	=84
0D	0r	2d\]	2b-i\
.	.	2c\	1a
.	.	2A/	.
.	.	2B\	4g/
.	.	.	4f/
=85	=85	=85	=85
0C	0e	1c	2e/
.	.	.	2.g/
.	.	2r	.
.	.	.	4f/
.	.	[2G/	4e/
.	.	.	4d/
=86	=86	=86	=86
0C	0e	4G/]	0c
.	.	4F/	.
.	.	4E/	.
.	.	4D/	.
.	.	2C/	.
.	.	2G/	.
=87	=87	=87	=87
0D	0d	2F/	2r
.	.	2.A/	2.f/
.	.	4G/	4g/
.	.	4F/	2a/
.	.	4E/	.
=88	=88	=88	=88
0D	0d	2F/	2d/
.	.	2D/	1f
.	.	[1A	.
.	.	.	4e/
.	.	.	4d/
=89	=89	=89	=89
0AA	0e	1A]	1c
.	.	2.c\	2r
.	.	.	[2cc\
.	.	4B\	.
=90	=90	=90	=90
0r	0e	4A/	4cc\]
.	.	4G/	4b\
.	.	1A	4a/
.	.	.	4g/
.	.	.	2a/
.	.	[2E/	[2g/
=91	=91	=91	=91
0r	0B	2E/]	2g/]
.	.	2.G/	4f/
.	.	.	4e/
.	.	.	2.d/
.	.	4A/	.
.	.	4B\	.
.	.	4c\	4e/
=92	=92	=92	=92
0D	0r	2d\	2f/
.	.	2B\	1g
.	.	1A	.
.	.	.	2f#i/
=93	=93	=93	=93
[0E	0r	1G	1g
.	.	2r	4g/
.	.	.	4f/
.	.	[2G/	4e/
.	.	.	4d/
=94	=94	=94	=94
0E]	0e	2G/]	2c/
.	.	2A/	1d
.	.	2B\	.
.	.	2G/	2c#i/
=95	=95	=95	=95
[0D	[0f	1A	1d
.	.	2r	2A/
.	.	[2F/	[2d/
=96	=96	=96	=96
0D]	0f]	2F/]	2d/]
.	.	2G/	2c/
.	.	2A/	2A/
.	.	2F/	2B/
=97	=97	=97	=97
[0C	[0e	1G	1c
.	.	2r	2G/
.	.	[2E/	[2c/
=98	=98	=98	=98
0C]	0e]	2E/]	2c/]
.	.	2F/	2B/
.	.	2G/	2G/
.	.	2E/	2A/
=99	=99	=99	=99
[0BB-	[0d	1F	1B-
.	.	2r	2G/
.	.	[2D/	[2B-i/
=100	=100	=100	=100
0BB-]	0d]	2D/]	2B-/]
.	.	2E/	1A
.	.	2F/	.
.	.	2D/	2G/
=101	=101	=101	=101
[0AA	[0c	0E	1A
.	.	.	2r
.	.	.	[2c/
=102	=102	=102	=102
0AA]	0c]	1A	2c/]
.	.	.	2d/
.	.	1A	2e/
.	.	.	2f/
=103	=103	=103	=103
0r	[0Bl	[0El	[0gl
=104	=104	=104	=104
0EEl	0B]	0E]	0g]
!!LO:LB:i:g=z
=105||	=105||	=105||	=105||
*>D	*>D	*>D	*>D
*clefF4	*clefGv2	*clefGv2	*clefG2
*k[]	*k[]	*k[]	*k[]
*M2/1	*M2/1	*M2/1	*M2/1
*met(C|)	*met(C|)	*met(C|)	*met(C|)
!!section: Benedictus
!!!OMD: Benedictus
0r	0r	0r	1.a
.	.	.	4g/
.	.	.	4f/
=106	=106	=106	=106
0r	0r	1r	2e/
.	.	.	2d/
.	.	[1e	[1g
=107	=107	=107	=107
0r	0r	2e\]	2g/]
.	.	4d\	4f/
.	.	4c\	4e/
.	.	2B\	2d/
.	.	2A/	2c/
=108	=108	=108	=108
0r	0r	1.d	1.f
.	.	4c\	4e/
.	.	4B\	4d/
=109	=109	=109	=109
1r	0r	2A/	2f/
.	.	2G/	2g/
[1A	.	[1c	1e
=110	=110	=110	=110
2A\]	0r	2c\]	0r
4G\	.	4B\	.
4F\	.	4A/	.
2E\	.	2c\	.
2D\	.	2d\	.
=111	=111	=111	=111
1.G	0r	0B	2r
.	.	.	1d
4F\	.	.	2e/
4E\	.	.	.
=112	=112	=112	=112
2D\	0r	1r	2f/
2C/	.	.	2g/
[1F	.	2.A/	1c
.	.	4B\	.
=113	=113	=113	=113
2F\]	0r	2c\	0r
4E\	.	2.d\	.
4D\	.	.	.
2F\	.	.	.
.	.	4c\	.
2G\	.	4B\	.
.	.	4A/	.
=114	=114	=114	=114
1E	2r	2.B\	2.g/
.	1E	.	.
.	.	4c\	4a/
1r	.	2B\	2b\
.	2E/	[2e\	[2cc\
=115	=115	=115	=115
0r	1A	4e\]	4cc\]
.	.	4d\	4b\
.	.	4c\	4a/
.	.	4B\	4g/
.	2A/	2c\	2a/
.	2G/	2d\	[2b\
=116	=116	=116	=116
0r	1F	1A	4b\]
.	.	.	4a/
.	.	.	1a
.	1E	1B	.
.	.	.	2g#i/
=117	=117	=117	=117
2r	0r	1A	1a
1AA	.	.	.
.	.	2r	4a/
.	.	.	4g/
2AA/	.	[2A/	4f/
.	.	.	4e/
=118	=118	=118	=118
1D	0r	4A/]	2.f/
.	.	4G/	.
.	.	4F/	.
.	.	4E/	4g/
2D\	.	2F/	2f/
2C/	.	2G/	[2e/
=119	=119	=119	=119
1BB	0r	1D	4e/]
.	.	.	4d/
.	.	.	1d
1AA	.	1E	.
.	.	.	2c#i/
=120	=120	=120	=120
0r	2r	1D	2.d/
.	1D	.	.
.	.	.	4e/
.	.	2r	4f/
.	.	.	4g/
.	2D/	[2d\	2a/
=121	=121	=121	=121
0r	1G	4d\]	2.g/
.	.	4c\	.
.	.	4B\	.
.	.	4A/	4f/
.	2G/	2B\	4e/
.	.	.	4d/
.	2F/	2c\	[2a/
=122	=122	=122	=122
0r	1E	1G	4a/]
.	.	.	4g/
.	.	.	1g
.	1D	1A	.
.	.	.	2f#i/
=123	=123	=123	=123
2r	0r	1G	1g
1GG	.	.	.
.	.	2r	4g/
.	.	.	4f/
2GG/	.	[2G/	4e/
.	.	.	4d/
=124	=124	=124	=124
1C	0r	4G/]	2.e/
.	.	4F/	.
.	.	4E/	.
.	.	4D/	4f/
2C/	.	2C/	2e/
2BB/	.	2G/	[2d/
=125	=125	=125	=125
1AA	0r	4F/	4d/]
.	.	4E/	4c/
.	.	4D/	1c
.	.	4C/	.
1GG	.	1D	.
.	.	.	2B/
=126	=126	=126	=126
0r	2r	0C	1c
.	1G	.	.
.	.	.	2.e/
.	2G/	.	.
.	.	.	4f/
=127	=127	=127	=127
0r	1c	0r	2g/
.	.	.	2.a/
.	2c\	.	.
.	.	.	4g/
.	2B\	.	[2g/
=128	=128	=128	=128
1r	1A	1r	2g/]
.	.	.	2f#i/
2r	1G	2r	1g
[2C/	.	[2c\	.
=129	=129	=129	=129
2C/]	0r	4c\]	0r
.	.	4B\	.
2C/	.	4A/	.
.	.	4G/	.
1F	.	2A/	.
.	.	[2d\	.
=130	=130	=130	=130
2F\	0r	2d\]	0r
2E\	.	1c	.
1D	.	.	.
.	.	2B\	.
=131	=131	=131	=131
1C	2r	1c	2r
.	1E	.	2.g/
1r	.	1r	.
.	.	.	4f/
.	2E/	.	4e/
.	.	.	4d/
=132	=132	=132	=132
0r	1A	0r	2e/
.	.	.	2.f/
.	2A/	.	.
.	.	.	4e/
.	2G/	.	[2e/
=133	=133	=133	=133
1r	1F	1r	2e/]
.	.	.	2d/
2r	1E	2r	1e
[2AA/	.	[2c\	.
=134	=134	=134	=134
2AA/]	1E	4c\]	0r
.	.	4B\	.
2AA/	.	4A/	.
.	.	4G/	.
1D	1r	2A/	.
.	.	[2B\	.
=135	=135	=135	=135
2D\	0r	2B\]	0r
2C/	.	1A	.
1BB	.	.	.
.	.	2G#i/	.
=136	=136	=136	=136
1AA	2r	1A	1r
.	1A	.	.
[1D	.	2r	2r
.	2A/	[2f\	[2a/
=137	=137	=137	=137
1D]	1d	4f\]	4a/]
.	.	4e\	4g/
.	.	4d\	4f/
.	.	4c\	4e/
1r	2d\	2d\	2f/
.	2c\	[2e\	2g/
=138	=138	=138	=138
0r	1B	2e\]	1d
.	.	1d	.
.	[1A	.	1e
.	.	2c#i\	.
=139	=139	=139	=139
1D	1A]	1d	0d
1G	2r	4d\	.
.	.	4c\	.
.	[2B\	4B\	.
.	.	4A/	.
=140	=140	=140	=140
4G\	2B\]	2B\	0r
4F\	.	.	.
4E\	2B\	2.G/	.
4D\	.	.	.
2E\	1e	.	.
.	.	4F/	.
[2C/	.	4E/	.
.	.	4D/	.
=141	=141	=141	=141
2C/]	2e\	2E/	0r
2BB/	2d\	1G	.
1AA	1c	.	.
.	.	2F#i/	.
=142	=142	=142	=142
0GGl	0Bl	0Gl	0dl
!!LO:LB:i:g=z
=143||	=143||	=143||	=143||
*>E	*>E	*>E	*>E
*clefF4	*clefGv2	*clefGv2	*clefG2
*k[]	*k[]	*k[]	*k[]
*M2/1	*M2/1	*M2/1	*M2/1
*met(C|)	*met(C|)	*met(C|)	*met(C|)
!!LO:TX:Z=48:X=90:t=Canon&colon; Fuga quatuour 
!!LO:TX:Z=28:X=90:t=pausarum in ee la mi
!!LO:TX:Z=8:X=90:t=[Canon at the upper fifth.]
!!section: Osanna II
!!!OMD: Osanna II
0AA	0A	0r	0c
=144	=144	=144	=144
0C	1A	0r	0e
.	[1G	.	.
=145	=145	=145	=145
0BB	1G]	0r	0d
.	1G	.	.
=146	=146	=146	=146
[0AA	0A	0r	[0c
=147	=147	=147	=147
0AA]	1A	0e	0c]
.	[1E	.	.
=148	=148	=148	=148
1C	1E]	1e	0g
1GG	1r	[1d	.
=149	=149	=149	=149
0D	1r	1d]	1.f
.	[1A	1d	.
.	.	.	4e/
.	.	.	4d/
=150	=150	=150	=150
1.AA	1A]	0e	1c
.	1A	.	4c/
.	.	.	4d/
[2C/	.	.	4e/
.	.	.	4f/
=151	=151	=151	=151
4C/]	0G	1e	1.g
4D\	.	.	.
1E	.	.	.
.	.	1B	.
4D\	.	.	4f/
4C/	.	.	4e/
=152	=152	=152	=152
1BB	1G	1r	1d
[1AA	[1A	1r	[1c
=153	=153	=153	=153
0AA_	1A]	1r	1c]
.	1A	[1e	1c
=154	=154	=154	=154
1AA]	1E	1e]	2r
.	.	.	2.c/
1C	2r	1e	.
.	.	.	4d/
.	2A/	.	4e/
.	.	.	4f/
=155	=155	=155	=155
1GG	1B	0d	2g/
.	.	.	2d/
[1D	2.A/	.	[1f
.	4G/	.	.
=156	=156	=156	=156
1D]	1F	1d	2f/]
.	.	.	4e/
.	.	.	4d/
1AA	1E	[1e	[1c
=157	=157	=157	=157
1C	1r	1e]	2c/]
.	.	.	4B/
.	.	.	4A/
4C/	[1E	1e	1G
4D\	.	.	.
4E\	.	.	.
4F\	.	.	.
=158	=158	=158	=158
1G	1E]	1B	2r
.	.	.	1g
1C	1E	2r	.
.	.	2e\	4f/
.	.	.	4e/
=159	=159	=159	=159
1D	0A	1f	1d
[1AA	.	2.e\	2.c/
.	.	4d\	4d/
=160	=160	=160	=160
1AA]	1A	1c	2e/
.	.	.	2.f/
1r	1G	1B	.
.	.	.	4e/
.	.	.	[2e/
=161	=161	=161	=161
1D	1F	1r	2e/]
.	.	.	2d/
[1G	[1E	[1B	[1e
=162	=162	=162	=162
2G\]	1E]	1B]	1e]
4F\	.	.	.
4E\	.	.	.
[1E	2r	1B	1g
.	2B\	.	.
=163	=163	=163	=163
1E]	2B\	0e	4g/
.	.	.	4f/
.	2B\	.	4e/
.	.	.	4d/
1AA	1A	.	[1c
=164	=164	=164	=164
1C	2G/	1e	1c]
.	2E/	.	.
1D	1F	1d	1A
=165	=165	=165	=165
4AA/	1E	1c	2r
4BB/	.	.	.
4C/	.	.	2.e/
4D\	.	.	.
2.E\	2r	[1B	.
.	.	.	4f/
.	2E/	.	[2g/
4F\	.	.	.
=166	=166	=166	=166
1G	2E/	1B]	2g/]
.	2E/	.	4f/
.	.	.	4e/
1A	[1D	2r	2f/
.	.	2f\	[2d/
=167	=167	=167	=167
1F	1D]	2f\	4d/]
.	.	.	8c/L
.	.	.	8B/J
.	.	2f\	2A/
2G\	2C/	1e	2r
2C/	2AA/	.	[2A/
=168	=168	=168	=168
1D	1BB	2d\	2A/]
.	.	2B\	2G#i/
2.E\	1AA	1c	1A
4F\	.	.	.
=169	=169	=169	=169
0G	[0E	1B	2B/
.	.	.	2G/
.	.	2r	2r
.	.	2B\	[2g/
=170	=170	=170	=170
2r	0E]	2B\	4g/]
.	.	.	4f/
2GG/	.	2B\	4e/
.	.	.	4d/
2.AA/	.	[1A	2.c/
4BB/	.	.	4d/
=171	=171	=171	=171
2C/	0r	1A]	2e/
2D\	.	.	1f
2E\	.	2G/	.
2C/	.	2E/	[2e/
=172	=172	=172	=172
1D	0r	1F	2e/]
.	.	.	2d/
1AA	.	1E	[1el
=173	=173	=173	=173
0El	0El	0Bl	0e]
==	==	==	==
*-	*-	*-	*-
!!!RDF**kern: l=long note in original notation
!!!RDF**kern: i=editorial accidental
!!!RDF**kern: V=start of tuplet marker
!!!RDF**kern: Z=end of tuplet marker
!!!ENC:	Jesse Rodin; Victoria Chang 2012/02/25
!!!END:	2012/02/25/
!!!EED:	Jesse Rodin
!!!EEV:	2012/08/03/
!!attribution-level@Jos: 5 (doubtful)
!!!ONB:	Translated from MusicXML and edited on 2012/08/03/ by Craig Sapp
!!muse2ps: T^@{OPR}^u^@{ONM}{. }@{OTL}^C^Comp&egrave;re/Josquin?/@{COA}?\n@{SCT}^i2I150v85,85,85,150Q8
